images/IMP.svg

<svg height="250" viewBox="0 0 250 250" width="250" xmlns="http://www.w3.org/2000/svg"><path d="m163.292969 83.046875h18.660156c19.296875 0 34.992187-15.695313 34.992187-34.988281v-13.996094c0-6.441406-5.222656-11.664062-11.664062-11.664062s-11.664062 5.222656-11.664062 11.664062v13.996094c0 6.429687-5.230469 11.664062-11.660157 11.664062h-18.664062c-6.441407 0-11.660157 5.21875-11.660157 11.660156 0 6.445313 5.21875 11.664063 11.660157 11.664063zm0 0" fill="#163256"/><path d="m55.019531 129.699219c-25.65625 0-46.652343-20.992188-46.652343-46.652344h233.265624c0 25.660156-20.996093 46.652344-46.652343 46.652344zm0 0" fill="#03a3b4"/><path d="m8.367188 83.046875s29.9375 23.910156 62.886718 30.03125l-16.234375 16.621094s-44.804687-.289063-46.652343-46.652344zm0 0" fill="#01949a"/><path d="m101.671875 129.699219h58.316406c19.246094 0 34.992188-15.746094 34.992188-34.988281 0-19.246094-15.746094-34.988282-34.992188-34.988282h-58.316406c-19.242187 0-34.988281 15.742188-34.988281 34.988282 0 19.242187 15.746094 34.988281 34.988281 34.988281zm0 0" fill="#03a3b4"/><path d="m183.4375 106.375h-88.886719c-25.589843 0-46.527343 20.9375-46.527343 46.527344v.246094c0 25.59375 20.9375 46.53125 46.527343 46.53125h88.886719c25.59375 0 46.53125-20.9375 46.53125-46.53125v-.246094c0-25.589844-20.9375-46.527344-46.53125-46.527344zm0 0" fill="#03a3b4"/><path d="m153.769531 83.046875c0-12.828125-12.246093-23.324219-18.660156-23.324219h24.878906c19.246094 0 34.992188 15.742188 34.992188 34.988282 0 3.175781-.46875 6.242187-1.269531 9.175781-2.316407 1.164062-4.839844 1.953125-7.5 2.296875 24.316406 1.511718 43.757812 21.820312 43.757812 46.503906 0 25.660156-20.992188 46.652344-46.652344 46.652344h-43.542968c12.828124 0 23.328124-20.992188 23.328124-46.652344 0-23.835938-6.734374-43.621094-18.304687-46.316406 0 .003906 8.972656-5.878906 8.972656-23.324219zm0 0" fill="#01949a"/><path d="m130.832031 113.371094c0 10.308594-8.355469 18.660156-18.660156 18.660156-10.308594 0-18.664063-8.351562-18.664063-18.660156 0-10.304688 8.355469-18.660156 18.664063-18.660156 10.304687 0 18.660156 8.355468 18.660156 18.660156zm0 0" fill="#fff"/><path d="m123.832031 113.371094c0 6.441406-5.21875 11.664062-11.660156 11.664062s-11.664063-5.222656-11.664063-11.664062 5.222657-11.660156 11.664063-11.660156 11.660156 5.21875 11.660156 11.660156zm0 0" fill="#163256"/><path d="m132.582031 107.539062h-40.820312c-4.8125 0-8.75-3.933593-8.75-8.746093s3.9375-8.746094 8.75-8.746094h40.820312c4.808594 0 8.746094 3.933594 8.746094 8.746094s-3.9375 8.746093-8.746094 8.746093zm0 0" fill="#163256"/><path d="m197.699219 113.371094c0 10.308594-8.355469 18.660156-18.660157 18.660156-6.75 0-12.660156-3.582031-15.9375-8.949219-1.726562-2.828125-2.722656-6.152343-2.722656-9.710937 0-3.628906 1.035156-7.015625 2.828125-9.882813 3.296875-5.269531 9.15625-8.777343 15.832031-8.777343 10.304688 0 18.660157 8.355468 18.660157 18.660156zm0 0" fill="#fff"/><path d="m186.035156 113.371094c0 6.441406-5.21875 11.664062-11.660156 11.664062s-11.664062-5.222656-11.664062-11.664062 5.222656-11.660156 11.664062-11.660156 11.660156 5.21875 11.660156 11.660156zm0 0" fill="#163256"/><path d="m202.363281 107.539062h-38.613281c-4.808594 0-8.746094-3.9375-8.746094-8.746093 0-4.8125 3.9375-8.746094 8.746094-8.746094h38.613281c4.808594 0 8.746094 3.933594 8.746094 8.746094s-3.9375 8.746093-8.746094 8.746093zm0 0" fill="#163256"/><path d="m167.375 122.703125 4.667969-11.664063-11.664063 4.664063v5.636719zm0 0" fill="#fff"/><path d="m89.621094 83.046875h-20.605469c-19.292969 0-34.988281-15.695313-34.988281-34.988281v-13.996094c0-6.441406 5.21875-11.664062 11.664062-11.664062 6.441406 0 11.660156 5.222656 11.660156 11.664062v13.996094c0 6.429687 5.234376 11.664062 11.664063 11.664062h20.605469c6.441406 0 11.664062 5.21875 11.664062 11.660156 0 6.445313-5.222656 11.664063-11.664062 11.664063zm0 0" fill="#163256"/><path d="m190.539062 142.613281h-93.855468c-5.40625 0-10.0625-7.179687-12.160156-11.007812-.789063-1.445313-2.300782-2.339844-3.949219-2.339844-2.484375 0-4.503907 2.015625-4.503907 4.503906v3.582031c0 12.660157 10.265626 22.921876 22.921876 22.921876h91.515624" fill="#163256"/><path d="m98.992188 156.683594h87.050781c2.464843 0 4.464843 1.996094 4.464843 4.464844 0 2.464843-2 4.464843-4.464843 4.464843h-87.050781c-15.101563 0-27.386719-12.285156-27.386719-27.386719 0 0-1.617188-12.550781 8.96875-12.550781 3.277343 0 6.289062 1.785157 7.863281 4.65625 3.273438 5.972657 6.570312 8.691407 8.246094 8.691407h107.851562c2.46875 0 4.464844 2 4.464844 4.464843 0 2.464844-1.996094 4.464844-4.464844 4.464844h-107.851562c-7.25 0-12.742188-7.246094-16.074219-13.328125l-.074219.019531s.808594 22.039063 18.457032 22.039063zm0 0" fill="#5ec7d1"/><g fill="#fff"><path d="m177.3125 147.996094-8.375 8.6875h-12.207031v-8.6875zm0 0"/><path d="m124.433594 147.996094 8.375 8.6875h14.539062v-8.6875zm0 0"/><path d="m178.265625 147.972656 9.78125 22.957032 10.042969-22.957032zm0 0"/><path d="m101.324219 147.972656 9.78125 22.957032 10.042969-22.957032zm0 0"/></g><path d="m164.015625 143.695312h-18.660156c-7.730469 0-13.996094-6.265624-13.996094-13.996093s6.265625-13.996094 13.996094-13.996094h18.660156c7.730469 0 13.996094 6.265625 13.996094 13.996094s-6.265625 13.996093-13.996094 13.996093zm0 0" fill="#5ec7d1"/><path d="m151.1875 139.03125h-9.332031v-12.996094c0-.550781.449219-1 1-1h7.332031c.550781 0 1 .449219 1 1zm0 0" fill="#163256"/><path d="m167.515625 139.03125h-9.332031v-12.996094c0-.550781.449218-1 1-1h7.332031c.550781 0 1 .449219 1 1zm0 0" fill="#163256"/><path d="m127.039062 199.703125s42.28125 6 45.585938 23.496094c0 0 23.375-31.296875-10.304688-57.539063 0 0-2.914062 34.042969-35.28125 34.042969zm0 0" fill="#163256"/><path d="m105.171875 122.703125 4.667969-11.664063-11.664063 4.664063v5.636719zm0 0" fill="#fff"/></svg>

<!-- Generator: Adobe Illustrator 19.0.1, SVG Export Plug-In . SVG Version: 6.00 Build 0)  -->
<svg xmlns="http://www.w3.org/2000/svg" xmlns:xlink="http://www.w3.org/1999/xlink" width="250px" height="250px" viewBox="0 0 250 250" version="1.1">
<g id="surface1">
<path style=" stroke:none;fill-rule:nonzero;fill:rgb(8.627451%,19.607843%,33.725491%);fill-opacity:1;" d="M 163.292969 83.046875 L 181.953125 83.046875 C 201.25 83.046875 216.945312 67.351562 216.945312 48.058594 L 216.945312 34.0625 C 216.945312 27.621094 211.722656 22.398438 205.28125 22.398438 C 198.839844 22.398438 193.617188 27.621094 193.617188 34.0625 L 193.617188 48.058594 C 193.617188 54.488281 188.386719 59.722656 181.957031 59.722656 L 163.292969 59.722656 C 156.851562 59.722656 151.632812 64.941406 151.632812 71.382812 C 151.632812 77.828125 156.851562 83.046875 163.292969 83.046875 Z M 163.292969 83.046875 "/>
<path style=" stroke:none;fill-rule:nonzero;fill:rgb(1.176471%,63.921571%,70.588237%);fill-opacity:1;" d="M 55.019531 129.699219 C 29.363281 129.699219 8.367188 108.707031 8.367188 83.046875 L 241.632812 83.046875 C 241.632812 108.707031 220.636719 129.699219 194.980469 129.699219 Z M 55.019531 129.699219 "/>
<path style=" stroke:none;fill-rule:nonzero;fill:rgb(0.392157%,58.039218%,60.392159%);fill-opacity:1;" d="M 8.367188 83.046875 C 8.367188 83.046875 38.304688 106.957031 71.253906 113.078125 L 55.019531 129.699219 C 55.019531 129.699219 10.214844 129.410156 8.367188 83.046875 Z M 8.367188 83.046875 "/>
<path style=" stroke:none;fill-rule:nonzero;fill:rgb(1.176471%,63.921571%,70.588237%);fill-opacity:1;" d="M 101.671875 129.699219 L 159.988281 129.699219 C 179.234375 129.699219 194.980469 113.953125 194.980469 94.710938 C 194.980469 75.464844 179.234375 59.722656 159.988281 59.722656 L 101.671875 59.722656 C 82.429688 59.722656 66.683594 75.464844 66.683594 94.710938 C 66.683594 113.953125 82.429688 129.699219 101.671875 129.699219 Z M 101.671875 129.699219 "/>
<path style=" stroke:none;fill-rule:nonzero;fill:rgb(1.176471%,63.921571%,70.588237%);fill-opacity:1;" d="M 183.4375 106.375 L 94.550781 106.375 C 68.960938 106.375 48.023438 127.3125 48.023438 152.902344 L 48.023438 153.148438 C 48.023438 178.742188 68.960938 199.679688 94.550781 199.679688 L 183.4375 199.679688 C 209.03125 199.679688 229.96875 178.742188 229.96875 153.148438 L 229.96875 152.902344 C 229.96875 127.3125 209.03125 106.375 183.4375 106.375 Z M 183.4375 106.375 "/>
<path style=" stroke:none;fill-rule:nonzero;fill:rgb(0.392157%,58.039218%,60.392159%);fill-opacity:1;" d="M 153.769531 83.046875 C 153.769531 70.21875 141.523438 59.722656 135.109375 59.722656 L 159.988281 59.722656 C 179.234375 59.722656 194.980469 75.464844 194.980469 94.710938 C 194.980469 97.886719 194.511719 100.953125 193.710938 103.886719 C 191.394531 105.050781 188.871094 105.839844 186.210938 106.183594 C 210.527344 107.695312 229.96875 128.003906 229.96875 152.6875 C 229.96875 178.347656 208.976562 199.339844 183.316406 199.339844 L 139.773438 199.339844 C 152.601562 199.339844 163.101562 178.347656 163.101562 152.6875 C 163.101562 128.851562 156.367188 109.066406 144.796875 106.371094 C 144.796875 106.375 153.769531 100.492188 153.769531 83.046875 Z M 153.769531 83.046875 "/>
<path style=" stroke:none;fill-rule:nonzero;fill:rgb(100%,100%,100%);fill-opacity:1;" d="M 130.832031 113.371094 C 130.832031 123.679688 122.476562 132.03125 112.171875 132.03125 C 101.863281 132.03125 93.507812 123.679688 93.507812 113.371094 C 93.507812 103.066406 101.863281 94.710938 112.171875 94.710938 C 122.476562 94.710938 130.832031 103.066406 130.832031 113.371094 Z M 130.832031 113.371094 "/>
<path style=" stroke:none;fill-rule:nonzero;fill:rgb(8.627451%,19.607843%,33.725491%);fill-opacity:1;" d="M 123.832031 113.371094 C 123.832031 119.8125 118.613281 125.035156 112.171875 125.035156 C 105.730469 125.035156 100.507812 119.8125 100.507812 113.371094 C 100.507812 106.929688 105.730469 101.710938 112.171875 101.710938 C 118.613281 101.710938 123.832031 106.929688 123.832031 113.371094 Z M 123.832031 113.371094 "/>
<path style=" stroke:none;fill-rule:nonzero;fill:rgb(8.627451%,19.607843%,33.725491%);fill-opacity:1;" d="M 132.582031 107.539062 L 91.761719 107.539062 C 86.949219 107.539062 83.011719 103.605469 83.011719 98.792969 C 83.011719 93.980469 86.949219 90.046875 91.761719 90.046875 L 132.582031 90.046875 C 137.390625 90.046875 141.328125 93.980469 141.328125 98.792969 C 141.328125 103.605469 137.390625 107.539062 132.582031 107.539062 Z M 132.582031 107.539062 "/>
<path style=" stroke:none;fill-rule:nonzero;fill:rgb(100%,100%,100%);fill-opacity:1;" d="M 197.699219 113.371094 C 197.699219 123.679688 189.34375 132.03125 179.039062 132.03125 C 172.289062 132.03125 166.378906 128.449219 163.101562 123.082031 C 161.375 120.253906 160.378906 116.929688 160.378906 113.371094 C 160.378906 109.742188 161.414062 106.355469 163.207031 103.488281 C 166.503906 98.21875 172.363281 94.710938 179.039062 94.710938 C 189.34375 94.710938 197.699219 103.066406 197.699219 113.371094 Z M 197.699219 113.371094 "/>
<path style=" stroke:none;fill-rule:nonzero;fill:rgb(8.627451%,19.607843%,33.725491%);fill-opacity:1;" d="M 186.035156 113.371094 C 186.035156 119.8125 180.816406 125.035156 174.375 125.035156 C 167.933594 125.035156 162.710938 119.8125 162.710938 113.371094 C 162.710938 106.929688 167.933594 101.710938 174.375 101.710938 C 180.816406 101.710938 186.035156 106.929688 186.035156 113.371094 Z M 186.035156 113.371094 "/>
<path style=" stroke:none;fill-rule:nonzero;fill:rgb(8.627451%,19.607843%,33.725491%);fill-opacity:1;" d="M 202.363281 107.539062 L 163.75 107.539062 C 158.941406 107.539062 155.003906 103.601562 155.003906 98.792969 C 155.003906 93.980469 158.941406 90.046875 163.75 90.046875 L 202.363281 90.046875 C 207.171875 90.046875 211.109375 93.980469 211.109375 98.792969 C 211.109375 103.605469 207.171875 107.539062 202.363281 107.539062 Z M 202.363281 107.539062 "/>
<path style=" stroke:none;fill-rule:nonzero;fill:rgb(100%,100%,100%);fill-opacity:1;" d="M 167.375 122.703125 L 172.042969 111.039062 L 160.378906 115.703125 L 160.378906 121.339844 Z M 167.375 122.703125 "/>
<path style=" stroke:none;fill-rule:nonzero;fill:rgb(8.627451%,19.607843%,33.725491%);fill-opacity:1;" d="M 89.621094 83.046875 L 69.015625 83.046875 C 49.722656 83.046875 34.027344 67.351562 34.027344 48.058594 L 34.027344 34.0625 C 34.027344 27.621094 39.246094 22.398438 45.691406 22.398438 C 52.132812 22.398438 57.351562 27.621094 57.351562 34.0625 L 57.351562 48.058594 C 57.351562 54.488281 62.585938 59.722656 69.015625 59.722656 L 89.621094 59.722656 C 96.0625 59.722656 101.285156 64.941406 101.285156 71.382812 C 101.285156 77.828125 96.0625 83.046875 89.621094 83.046875 Z M 89.621094 83.046875 "/>
<path style=" stroke:none;fill-rule:nonzero;fill:rgb(8.627451%,19.607843%,33.725491%);fill-opacity:1;" d="M 190.539062 142.613281 L 96.683594 142.613281 C 91.277344 142.613281 86.621094 135.433594 84.523438 131.605469 C 83.734375 130.160156 82.222656 129.265625 80.574219 129.265625 C 78.089844 129.265625 76.070312 131.28125 76.070312 133.769531 L 76.070312 137.351562 C 76.070312 150.011719 86.335938 160.273438 98.992188 160.273438 L 190.507812 160.273438 "/>
<path style=" stroke:none;fill-rule:nonzero;fill:rgb(36.862746%,78.039217%,81.960785%);fill-opacity:1;" d="M 98.992188 156.683594 L 186.042969 156.683594 C 188.507812 156.683594 190.507812 158.679688 190.507812 161.148438 C 190.507812 163.613281 188.507812 165.613281 186.042969 165.613281 L 98.992188 165.613281 C 83.890625 165.613281 71.605469 153.328125 71.605469 138.226562 C 71.605469 138.226562 69.988281 125.675781 80.574219 125.675781 C 83.851562 125.675781 86.863281 127.460938 88.4375 130.332031 C 91.710938 136.304688 95.007812 139.023438 96.683594 139.023438 L 204.535156 139.023438 C 207.003906 139.023438 209 141.023438 209 143.488281 C 209 145.953125 207.003906 147.953125 204.535156 147.953125 L 96.683594 147.953125 C 89.433594 147.953125 83.941406 140.707031 80.609375 134.625 L 80.535156 134.644531 C 80.535156 134.644531 81.34375 156.683594 98.992188 156.683594 Z M 98.992188 156.683594 "/>
<path style=" stroke:none;fill-rule:nonzero;fill:rgb(100%,100%,100%);fill-opacity:1;" d="M 177.3125 147.996094 L 168.9375 156.683594 L 156.730469 156.683594 L 156.730469 147.996094 Z M 177.3125 147.996094 "/>
<path style=" stroke:none;fill-rule:nonzero;fill:rgb(100%,100%,100%);fill-opacity:1;" d="M 124.433594 147.996094 L 132.808594 156.683594 L 147.347656 156.683594 L 147.347656 147.996094 Z M 124.433594 147.996094 "/>
<path style=" stroke:none;fill-rule:nonzero;fill:rgb(100%,100%,100%);fill-opacity:1;" d="M 178.265625 147.972656 L 188.046875 170.929688 L 198.089844 147.972656 Z M 178.265625 147.972656 "/>
<path style=" stroke:none;fill-rule:nonzero;fill:rgb(100%,100%,100%);fill-opacity:1;" d="M 101.324219 147.972656 L 111.105469 170.929688 L 121.148438 147.972656 Z M 101.324219 147.972656 "/>
<path style=" stroke:none;fill-rule:nonzero;fill:rgb(36.862746%,78.039217%,81.960785%);fill-opacity:1;" d="M 164.015625 143.695312 L 145.355469 143.695312 C 137.625 143.695312 131.359375 137.429688 131.359375 129.699219 C 131.359375 121.96875 137.625 115.703125 145.355469 115.703125 L 164.015625 115.703125 C 171.746094 115.703125 178.011719 121.96875 178.011719 129.699219 C 178.011719 137.429688 171.746094 143.695312 164.015625 143.695312 Z M 164.015625 143.695312 "/>
<path style=" stroke:none;fill-rule:nonzero;fill:rgb(8.627451%,19.607843%,33.725491%);fill-opacity:1;" d="M 151.1875 139.03125 L 141.855469 139.03125 L 141.855469 126.035156 C 141.855469 125.484375 142.304688 125.035156 142.855469 125.035156 L 150.1875 125.035156 C 150.738281 125.035156 151.1875 125.484375 151.1875 126.035156 Z M 151.1875 139.03125 "/>
<path style=" stroke:none;fill-rule:nonzero;fill:rgb(8.627451%,19.607843%,33.725491%);fill-opacity:1;" d="M 167.515625 139.03125 L 158.183594 139.03125 L 158.183594 126.035156 C 158.183594 125.484375 158.632812 125.035156 159.183594 125.035156 L 166.515625 125.035156 C 167.066406 125.035156 167.515625 125.484375 167.515625 126.035156 Z M 167.515625 139.03125 "/>
<path style=" stroke:none;fill-rule:nonzero;fill:rgb(8.627451%,19.607843%,33.725491%);fill-opacity:1;" d="M 127.039062 199.703125 C 127.039062 199.703125 169.320312 205.703125 172.625 223.199219 C 172.625 223.199219 196 191.902344 162.320312 165.660156 C 162.320312 165.660156 159.40625 199.703125 127.039062 199.703125 Z M 127.039062 199.703125 "/>
<path style=" stroke:none;fill-rule:nonzero;fill:rgb(100%,100%,100%);fill-opacity:1;" d="M 105.171875 122.703125 L 109.839844 111.039062 L 98.175781 115.703125 L 98.175781 121.339844 Z M 105.171875 122.703125 "/>
</g>
</svg>
